cocinas/_DSC9704.xmp
<x:xmpmeta xmlns:x="adobe:ns:meta/" x:xmptk="Adobe XMP Core 5.6-c140 79.160451, 2017/05/06-01:08:21        ">
 <rdf:RDF xmlns:rdf="http://www.w3.org/1999/02/22-rdf-syntax-ns#">
  <rdf:Description rdf:about=""
    xmlns:xmp="http://ns.adobe.com/xap/1.0/"
    xmlns:tiff="http://ns.adobe.com/tiff/1.0/"
    xmlns:exif="http://ns.adobe.com/exif/1.0/"
    xmlns:aux="http://ns.adobe.com/exif/1.0/aux/"
    xmlns:photoshop="http://ns.adobe.com/photoshop/1.0/"
    xmlns:xmpMM="http://ns.adobe.com/xap/1.0/mm/"
    xmlns:stEvt="http://ns.adobe.com/xap/1.0/sType/ResourceEvent#"
    xmlns:dc="http://purl.org/dc/elements/1.1/"
    xmlns:crd="http://ns.adobe.com/camera-raw-defaults/1.0/"
    xmlns:crs="http://ns.adobe.com/camera-raw-settings/1.0/"
   xmp:Rating="0"
   xmp:CreatorTool="Ver.1.03"
   xmp:ModifyDate="2020-09-21T09:43:08.10"
   xmp:CreateDate="2020-09-21T09:43:08.10"
   xmp:MetadataDate="2021-11-03T15:00:45-05:00"
   tiff:Make="NIKON CORPORATION"
   tiff:Model="NIKON D5300"
   tiff:Orientation="8"
   exif:ExifVersion="0231"
   exif:ExposureTime="1/100"
   exif:ShutterSpeedValue="6643856/1000000"
   exif:FNumber="4/1"
   exif:ApertureValue="4/1"
   exif:ExposureProgram="1"
   exif:SensitivityType="2"
   exif:ExposureBiasValue="2/6"
   exif:MaxApertureValue="37/10"
   exif:MeteringMode="5"
   exif:LightSource="0"
   exif:FocalLength="200/10"
   exif:SensingMethod="2"
   exif:FileSource="3"
   exif:SceneType="1"
   exif:FocalLengthIn35mmFilm="30"
   exif:CustomRendered="0"
   exif:ExposureMode="1"
   exif:WhiteBalance="0"
   exif:SceneCaptureType="0"
   exif:GainControl="1"
   exif:Contrast="0"
   exif:Saturation="0"
   exif:Sharpness="0"
   exif:SubjectDistanceRange="0"
   exif:DigitalZoomRatio="1/1"
   exif:FocalPlaneXResolution="83841555/32768"
   exif:FocalPlaneYResolution="83841555/32768"
   exif:FocalPlaneResolutionUnit="3"
   exif:DateTimeOriginal="2020-09-21T09:43:08.10"
   aux:SerialNumber="2405195"
   aux:LensInfo="180/10 1400/10 35/10 56/10"
   aux:Lens="18.0-140.0 mm f/3.5-5.6"
   aux:LensID="160"
   aux:ImageNumber="38470"
   aux:ApproximateFocusDistance="141/100"
   photoshop:DateCreated="2020-09-21T09:43:08.10"
   photoshop:SidecarForExtension="NEF"
   photoshop:EmbeddedXMPDigest="01F5B32CAED764DC3DCAD90E2D1E42A4"
   xmpMM:DocumentID="16E9656145D00837A6D59B91FE252473"
   xmpMM:OriginalDocumentID="16E9656145D00837A6D59B91FE252473"
   xmpMM:InstanceID="xmp.iid:00f77762-c18d-124d-a186-a6c0d0c42c6d"
   dc:format="image/x-nikon-nef"
   crd:CameraProfile="Camera STANDARD"
   crd:LookName=""
   crs:Version="13.3"
   crs:ProcessVersion="11.0"
   crs:WhiteBalance="Custom"
   crs:Temperature="5600"
   crs:Tint="-9"
   crs:Exposure2012="+0.20"
   crs:Contrast2012="+22"
   crs:Highlights2012="+19"
   crs:Shadows2012="-5"
   crs:Whites2012="+9"
   crs:Blacks2012="-8"
   crs:Texture="+21"
   crs:Clarity2012="0"
   crs:Dehaze="0"
   crs:Vibrance="0"
   crs:Saturation="0"
   crs:ParametricShadows="0"
   crs:ParametricDarks="0"
   crs:ParametricLights="0"
   crs:ParametricHighlights="0"
   crs:ParametricShadowSplit="25"
   crs:ParametricMidtoneSplit="50"
   crs:ParametricHighlightSplit="75"
   crs:Sharpness="40"
   crs:SharpenRadius="+1.0"
   crs:SharpenDetail="25"
   crs:SharpenEdgeMasking="0"
   crs:LuminanceSmoothing="0"
   crs:ColorNoiseReduction="25"
   crs:ColorNoiseReductionDetail="50"
   crs:ColorNoiseReductionSmoothness="50"
   crs:HueAdjustmentRed="0"
   crs:HueAdjustmentOrange="0"
   crs:HueAdjustmentYellow="0"
   crs:HueAdjustmentGreen="0"
   crs:HueAdjustmentAqua="0"
   crs:HueAdjustmentBlue="0"
   crs:HueAdjustmentPurple="0"
   crs:HueAdjustmentMagenta="0"
   crs:SaturationAdjustmentRed="0"
   crs:SaturationAdjustmentOrange="0"
   crs:SaturationAdjustmentYellow="0"
   crs:SaturationAdjustmentGreen="0"
   crs:SaturationAdjustmentAqua="0"
   crs:SaturationAdjustmentBlue="0"
   crs:SaturationAdjustmentPurple="0"
   crs:SaturationAdjustmentMagenta="0"
   crs:LuminanceAdjustmentRed="0"
   crs:LuminanceAdjustmentOrange="0"
   crs:LuminanceAdjustmentYellow="0"
   crs:LuminanceAdjustmentGreen="0"
   crs:LuminanceAdjustmentAqua="0"
   crs:LuminanceAdjustmentBlue="0"
   crs:LuminanceAdjustmentPurple="0"
   crs:LuminanceAdjustmentMagenta="0"
   crs:SplitToningShadowHue="0"
   crs:SplitToningShadowSaturation="0"
   crs:SplitToningHighlightHue="0"
   crs:SplitToningHighlightSaturation="0"
   crs:SplitToningBalance="0"
   crs:ColorGradeMidtoneHue="0"
   crs:ColorGradeMidtoneSat="0"
   crs:ColorGradeShadowLum="0"
   crs:ColorGradeMidtoneLum="0"
   crs:ColorGradeHighlightLum="0"
   crs:ColorGradeBlending="50"
   crs:ColorGradeGlobalHue="0"
   crs:ColorGradeGlobalSat="0"
   crs:ColorGradeGlobalLum="0"
   crs:AutoLateralCA="0"
   crs:LensProfileEnable="0"
   crs:LensManualDistortionAmount="0"
   crs:VignetteAmount="0"
   crs:DefringePurpleAmount="0"
   crs:DefringePurpleHueLo="30"
   crs:DefringePurpleHueHi="70"
   crs:DefringeGreenAmount="0"
   crs:DefringeGreenHueLo="40"
   crs:DefringeGreenHueHi="60"
   crs:PerspectiveUpright="0"
   crs:PerspectiveVertical="0"
   crs:PerspectiveHorizontal="0"
   crs:PerspectiveRotate="0.0"
   crs:PerspectiveAspect="0"
   crs:PerspectiveScale="100"
   crs:PerspectiveX="0.00"
   crs:PerspectiveY="0.00"
   crs:GrainAmount="0"
   crs:PostCropVignetteAmount="0"
   crs:ShadowTint="0"
   crs:RedHue="0"
   crs:RedSaturation="0"
   crs:GreenHue="0"
   crs:GreenSaturation="0"
   crs:BlueHue="0"
   crs:BlueSaturation="0"
   crs:OverrideLookVignette="False"
   crs:ToneCurveName2012="Linear"
   crs:CameraProfile="Adobe Standard"
   crs:CameraProfileDigest="39CE0286CB6EBA9011F3CCAE287F46BD"
   crs:HasSettings="True"
   crs:HasCrop="False"
   crs:AlreadyApplied="False">
   <exif:ISOSpeedRatings>
    <rdf:Seq>
     <rdf:li>400</rdf:li>
    </rdf:Seq>
   </exif:ISOSpeedRatings>
   <exif:Flash
    exif:Fired="False"
    exif:Return="0"
    exif:Mode="0"
    exif:Function="False"
    exif:RedEyeMode="False"/>
   <xmpMM:History>
    <rdf:Seq>
     <rdf:li
      stEvt:action="saved"
      stEvt:instanceID="xmp.iid:00f77762-c18d-124d-a186-a6c0d0c42c6d"
      stEvt:when="2021-11-03T15:00:45-05:00"
      stEvt:softwareAgent="Adobe Photoshop Camera Raw 13.4 (Windows)"
      stEvt:changed="/metadata"/>
    </rdf:Seq>
   </xmpMM:History>
   <crs:ToneCurvePV2012>
    <rdf:Seq>
     <rdf:li>0, 0</rdf:li>
     <rdf:li>255, 255</rdf:li>
    </rdf:Seq>
   </crs:ToneCurvePV2012>
   <crs:ToneCurvePV2012Red>
    <rdf:Seq>
     <rdf:li>0, 0</rdf:li>
     <rdf:li>255, 255</rdf:li>
    </rdf:Seq>
   </crs:ToneCurvePV2012Red>
   <crs:ToneCurvePV2012Green>
    <rdf:Seq>
     <rdf:li>0, 0</rdf:li>
     <rdf:li>255, 255</rdf:li>
    </rdf:Seq>
   </crs:ToneCurvePV2012Green>
   <crs:ToneCurvePV2012Blue>
    <rdf:Seq>
     <rdf:li>0, 0</rdf:li>
     <rdf:li>255, 255</rdf:li>
    </rdf:Seq>
   </crs:ToneCurvePV2012Blue>
   <crs:Look>
    <rdf:Description
     crs:Name="Adobe Color"
     crs:Amount="1.000000"
     crs:UUID="B952C231111CD8E0ECCF14B86BAA7077"
     crs:SupportsAmount="false"
     crs:SupportsMonochrome="false"
     crs:SupportsOutputReferred="false"
     crs:Copyright="© 2018 Adobe Systems, Inc.">
    <crs:Group>
     <rdf:Alt>
      <rdf:li xml:lang="x-default">Profiles</rdf:li>
     </rdf:Alt>
    </crs:Group>
    <crs:Parameters>
     <rdf:Description
      crs:Version="13.3"
      crs:ProcessVersion="11.0"
      crs:ConvertToGrayscale="False"
      crs:CameraProfile="Adobe Standard"
      crs:LookTable="E1095149FDB39D7A057BAB208837E2E1">
     <crs:ToneCurvePV2012>
      <rdf:Seq>
       <rdf:li>0, 0</rdf:li>
       <rdf:li>22, 16</rdf:li>
       <rdf:li>40, 35</rdf:li>
       <rdf:li>127, 127</rdf:li>
       <rdf:li>224, 230</rdf:li>
       <rdf:li>240, 246</rdf:li>
       <rdf:li>255, 255</rdf:li>
      </rdf:Seq>
     </crs:ToneCurvePV2012>
     <crs:ToneCurvePV2012Red>
      <rdf:Seq>
       <rdf:li>0, 0</rdf:li>
       <rdf:li>255, 255</rdf:li>
      </rdf:Seq>
     </crs:ToneCurvePV2012Red>
     <crs:ToneCurvePV2012Green>
      <rdf:Seq>
       <rdf:li>0, 0</rdf:li>
       <rdf:li>255, 255</rdf:li>
      </rdf:Seq>
     </crs:ToneCurvePV2012Green>
     <crs:ToneCurvePV2012Blue>
      <rdf:Seq>
       <rdf:li>0, 0</rdf:li>
       <rdf:li>255, 255</rdf:li>
      </rdf:Seq>
     </crs:ToneCurvePV2012Blue>
     </rdf:Description>
    </crs:Parameters>
    </rdf:Description>
   </crs:Look>
  </rdf:Description>
 </rdf:RDF>
</x:xmpmeta>
